packages/sources/icons/src/vitamix/calendar-date-line.svg

<svg width="16" height="16" viewBox="0 0 16 16" xmlns="http://www.w3.org/2000/svg"><path d="M11.3276 2.663H13.9936C14.3617 2.663 14.6601 2.9614 14.6601 3.3295V13.9935C14.6601 14.3616 14.3617 14.66 13.9936 14.66H1.99658C1.62848 14.66 1.33008 14.3616 1.33008 13.9935V3.3295C1.33008 2.9614 1.62848 2.663 1.99658 2.663H4.66258V1.33H5.99558V2.663H9.99458V1.33H11.3276V2.663ZM5.51263 12.0721C6.11925 12.0721 6.60675 11.9198 6.97515 11.6152C7.34355 11.3106 7.52775 10.9057 7.52775 10.4007C7.52775 10.0882 7.44899 9.81746 7.29148 9.58835C7.13397 9.35924 6.89509 9.18741 6.57486 9.07286C6.83261 8.9557 7.04089 8.78777 7.1997 8.56908C7.35852 8.35038 7.43793 8.11086 7.43793 7.85051C7.43793 7.34542 7.2674 6.94904 6.92633 6.66135C6.58527 6.37366 6.11404 6.22982 5.51263 6.22982C5.16636 6.22982 4.84938 6.29621 4.56169 6.42899C4.274 6.56177 4.0501 6.74597 3.88998 6.98158C3.72987 7.2172 3.64981 7.48341 3.64981 7.78021H4.77843C4.77843 7.59015 4.85133 7.4359 4.99713 7.31744C5.14293 7.19898 5.32387 7.13975 5.53996 7.13975C5.77949 7.13975 5.96759 7.20353 6.10427 7.33111C6.24096 7.45868 6.3093 7.63702 6.3093 7.86613C6.3093 8.10305 6.24031 8.2931 6.10232 8.4363C5.96434 8.57949 5.75215 8.65109 5.46576 8.65109H4.86435V9.53368H5.46186C6.0867 9.53368 6.39912 9.81746 6.39912 10.385C6.39912 10.6193 6.32297 10.8074 6.17066 10.9493C6.01836 11.0912 5.80813 11.1622 5.53996 11.1622C5.30565 11.1622 5.10843 11.0945 4.94831 10.9591C4.7882 10.8237 4.70814 10.6493 4.70814 10.4358H3.57952C3.57952 10.9279 3.75981 11.3236 4.1204 11.623C4.48098 11.9224 4.94506 12.0721 5.51263 12.0721ZM10.2146 12.0721C10.842 12.0721 11.3185 11.8638 11.6439 11.4473C11.9693 11.0307 12.1321 10.4293 12.1321 9.64303V8.59641C12.1243 7.83358 11.9563 7.24844 11.6283 6.84099C11.3002 6.43354 10.8264 6.22982 10.2068 6.22982C9.58713 6.22982 9.11264 6.4355 8.78329 6.84685C8.45395 7.25821 8.28928 7.86092 8.28928 8.65499V9.70161C8.29709 10.4644 8.46501 11.0502 8.79306 11.459C9.1211 11.8677 9.59494 12.0721 10.2146 12.0721ZM10.2146 11.1622C9.936 11.1622 9.73357 11.0496 9.6073 10.8244C9.48103 10.5992 9.4179 10.2549 9.4179 9.79143V8.40896C9.42571 7.97417 9.49275 7.65459 9.61902 7.45022C9.74529 7.24584 9.94121 7.14365 10.2068 7.14365C10.4801 7.14365 10.6813 7.25105 10.8101 7.46584C10.939 7.68063 11.0034 8.02364 11.0034 8.49488V9.8461C10.9982 10.2913 10.9344 10.6219 10.8121 10.838C10.6897 11.0541 10.4905 11.1622 10.2146 11.1622ZM9.99458 3.996H5.99558V5.329H4.66258V3.996H2.66308V13.3203H13.3271V3.996H11.3276V5.329H9.99458V3.996Z"/></svg>

<svg width="16" height="16" xmlns="http://www.w3.org/2000/svg"><path d="M11.328 2.663h2.666c.368 0 .666.298.666.667v10.663a.666.666 0 0 1-.666.667H1.997a.666.666 0 0 1-.667-.667V3.33c0-.368.298-.666.667-.666h2.666V1.33h1.333v1.333h3.999V1.33h1.333v1.333Zm-5.815 9.41c.606 0 1.094-.153 1.462-.458.369-.304.553-.71.553-1.214 0-.313-.079-.584-.237-.813-.157-.229-.396-.4-.716-.515.258-.117.466-.285.625-.504.159-.219.238-.458.238-.718 0-.506-.17-.902-.512-1.19-.34-.287-.812-.431-1.413-.431-.347 0-.664.066-.951.199a1.6 1.6 0 0 0-.672.553c-.16.235-.24.501-.24.798h1.128c0-.19.073-.344.22-.463a.833.833 0 0 1 .542-.177c.24 0 .428.064.564.191.137.128.205.306.205.535 0 .237-.069.427-.207.57-.138.143-.35.215-.636.215h-.602v.883h.598c.625 0 .937.283.937.851a.735.735 0 0 1-.228.564c-.153.142-.363.213-.631.213a.885.885 0 0 1-.592-.203.654.654 0 0 1-.24-.523H3.58c0 .492.18.888.54 1.187.361.3.825.45 1.393.45Zm4.702 0c.627 0 1.104-.21 1.429-.626.325-.416.488-1.018.488-1.804V8.596c-.008-.762-.176-1.348-.504-1.755-.328-.407-.802-.611-1.421-.611-.62 0-1.094.205-1.424.617-.329.411-.494 1.014-.494 1.808v1.047c.008.762.176 1.348.504 1.757.328.409.802.613 1.422.613Zm0-.91c-.279 0-.481-.113-.608-.339-.126-.225-.19-.57-.19-1.033V8.41c.009-.435.076-.754.202-.959.126-.204.322-.306.588-.306.273 0 .474.107.603.322.129.215.193.558.193 1.029v1.351c-.005.445-.069.776-.19.992-.123.216-.322.324-.598.324Zm-.22-7.167h-4v1.333H4.664V3.996h-2v9.324h10.664V3.996h-2v1.333H9.996V3.996Z"/></svg>
